!!!COM: Palestrina, Giovanni Perluigi da
!!!OPR: Missa In festis Apostolorum (II)
!!!OMD: Credo
!!!OTL: Genitum
**kern	**kern	**kern	**kern
*Ibass	*Itenor	*Itenor	*Icalto
!Bassus	!Tenor 2	!Tenor 1	!Altus
*clefF4	*clefGv2	*clefGv2	*clefG2
*k[]	*k[]	*k[]	*k[]
*D:dor	*D:dor	*D:dor	*D:dor
*M4/2	*M4/2	*M4/2	*M4/2
=44	=44	=44	=44
1.D	1r	0r	0r
.	[1A	.	.
2C	.	.	.
=45	=45	=45	=45
2D	2A]	0r	0r
2E	2G	.	.
2F	2A	.	.
4E	2B	.	.
4D	.	.	.
=46	=46	=46	=46
4C	2c	0r	0r
4D	.	.	.
4E	4B	.	.
4C	4A	.	.
2.D	4B	.	.
.	4A	.	.
.	[2A	.	.
4C	.	.	.
=47	=47	=47	=47
1BB	2A]	1r	1.d
.	2G#	.	.
1AA	2.A	2r	.
.	.	[2A	2c
.	4G	.	.
=48	=48	=48	=48
0r	2F	2A]	2d
.	2E	2G	2e
.	1D	2A	2f
.	.	2B	4e
.	.	.	4d
=49	=49	=49	=49
0r	4C	2c	1e
.	4D	.	.
.	4E	4B	.
.	4F	4A	.
.	2G	2B	2d
.	2A	[2A	2c
=50	=50	=50	=50
0r	1E	2A]	1B
.	.	2G#	.
.	2r	1A	1c
.	[2A	.	.
=51	=51	=51	=51
1.D	2A]	1.F	1d
.	2B	.	.
.	2A	.	1r
2E	2G	2G	.
=52	=52	=52	=52
2D	2F	1A	0r
2C	2E	.	.
2BB	2D	2G	.
2AA	4E	[2c	.
.	4F	.	.
=53	=53	=53	=53
2GG	1G	2c]	0r
2.G	.	2B	.
.	2D	1A	.
8F#	.	.	.
8E	.	.	.
2F#	[2d	.	.
=54	=54	=54	=54
1G	2d]	2B	0r
.	2e	1G	.
1r	2d	.	.
.	2c	2A	.
=55	=55	=55	=55
0r	2B	2G	1d
.	2A	2F	.
.	4G	2E	1e
.	8A	.	.
.	8B	.	.
.	2c	2C	.
=56	=56	=56	=56
0r	2B	1D	2.d
.	2A	.	.
.	.	.	4c
.	2G	[1E	2B
.	2c	.	2A
=57	=57	=57	=57
0r	2B	0E]	2G
.	1A	.	2A
.	.	.	1B
.	2G#	.	.
=58	=58	=58	=58
1AA	2A	2r	2r
.	1c	1A	1e
1C	.	.	.
.	2c	2G	2e
=59	=59	=59	=59
2.D	2.A	2.F	2.d
4D	4A	4F	4d
1AA	1A	2E	1c
.	.	[2c	.
=60	=60	=60	=60
1C	2G	4c]	1e
.	.	4B	.
.	2C	1A	.
1BB	1D	.	1d
.	.	2G#	.
=61	=61	=61	=61
2AA	1E	2A	2c
1C	.	2E	1e
.	1r	1G	.
2BB	.	.	2d
=62	=62	=62	=62
1AA	1E	2.A	2.c
.	.	4A	4c
2GG	1G	1D	2B
2BB	.	.	[2d
=63	=63	=63	=63
2AA	2.A	2r	2d]
2AA	.	2E	2c
.	4A	.	.
1GG	1D	1G	2.B
.	.	.	4B
=64	=64	=64	=64
0D	0F	2.A	2A
.	.	.	2.f
.	.	4A	.
.	.	4D	.
.	.	4E	4e
.	.	4F	[2d
.	.	4G	.
=65	=65	=65	=65
0AA	0E	2A	2d]
.	.	1A	4c#
.	.	.	4B
.	.	.	2c#
.	.	2A	2c#
=66	=66	=66	=66
[0D	[0D	[0A	[0d
=67	=67	=67	=67
0D]	0D]	0A]	0d]
*-	*-	*-	*-
!!!CDT: 1525/^1526/-1594/2/2
!!!OCY: Italia
!!!AGN: Mass (Paraphrase)
!!!AST: renaissance, vocal
!!!ASW: Gregorian Mass
!!!PWK: Masses, Book Mantuan II
!!!RNB: Cadence finals: A
!!!YOR: Le Opere Complete, v. 19, p. 1
!!!YOO: Rome, Italy: Fratelli Scalera
!!!END: 1992//
!!!EED: John Miller
!!!YEC: Copyright 2000, John Miller
!!!YEN: United States of America
!!!YEM: Rights to all derivative electronic formats reserved.
!!!YEM: Refer to licensing agreement for further details.
!!!YEM: This file must be accompanied by the licensing agreement.
!!!YEM: A copy of the licensing agreement may be found at http://www.music-cog.ohio-state.edu/HumdrumDatabases/Palestrina/license.txt
!!!EMD: converted to Humdrum by Bret Aarden
